Origami/24x24/apps/resharpercpp.svg

<svg width="24" height="24" version="1" xmlns="http://www.w3.org/2000/svg">
 <path d="m12 2h-9c-0.554 0-1 0.446-1 1v9h10z" style="fill:#ff8c2a"/>
 <path d="m12 2h9c0.554 0 1 0.446 1 1v9h-10z" style="fill:#cf4f8c"/>
 <path d="m12 22h-9c-0.554 0-1-0.446-1-1v-9h10z" style="fill:#c72566"/>
 <path d="m12 22h9c0.554 0 1-0.446 1-1v-9h-10z" style="fill:#ff8c2a"/>
 <path d="m3 2c-0.554 0-1 0.446-1 1v0.5c0-0.554 0.446-1 1-1h18c0.554 0 1 0.446 1 1v-0.5c0-0.554-0.446-1-1-1z" style="fill:#ffffff;opacity:.2"/>
 <path d="m3 22.5c-0.554 0-1-0.446-1-1v-0.5c0 0.554 0.446 1 1 1h18c0.554 0 1-0.446 1-1v0.5c0 0.554-0.446 1-1 1z" style="opacity:.2"/>
 <rect x="5" y="5" width="14" height="14" style="fill:#3f3f3f"/>
 <path d="m7.5071212 15.99995h3.9999998" style="fill:none;opacity:.2;stroke-linecap:round;stroke:#000000"/>
 <path d="m7.5071212 15.5h3.9999998" style="fill:none;stroke-linecap:round;stroke:#ffffff"/>
 <path d="m9.5071222 11.99995-1.000001-1.5m-1.0000005-0.500001s2.0000015 0.23225 2.0000015-0.999999c0-1.2322505-2.0000015-1.0000005-2.0000015-1.0000005m4.9e-5 4.0000495v-4.0000005" style="fill:none;opacity:.2;stroke-linecap:round;stroke-width:.99999994;stroke:#000000"/>
 <path d="m9.5071222 11.5-1.000001-1.5m-1.0000005-0.5000015s2.0000015 0.2322505 2.0000015-0.9999985c0-1.2322505-2.0000015-1.0000005-2.0000015-1.0000005m4.9e-5 4.0000495v-4.0000005" style="fill:none;stroke-linecap:round;stroke-width:.99999994;stroke:#ffffff"/>
 <path d="m11.507121 10.99995h2m-1 1v-2" style="fill:none;opacity:.2;stroke-linecap:round;stroke:#000000"/>
 <path d="m11.507121 10.5h2m-1 1v-2" style="fill:none;stroke-linecap:round;stroke:#ffffff"/>
 <path d="m13.507121 7.9998788h2m-1 1v-2" style="fill:none;opacity:.2;stroke-linecap:round;stroke:#000000"/>
 <path d="m13.507121 7.4999288h2m-1 1v-2" style="fill:none;stroke-linecap:round;stroke:#ffffff"/>
</svg>

<svg xmlns="http://www.w3.org/2000/svg" width="24" height="24" version="1">
 <path style="fill:#ff8c2a" d="M 12,2 H 3 C 2.446,2 2,2.446 2,3 v 9 h 10 z"/>
 <path style="fill:#cf4f8c" d="m 12,2 h 9 c 0.554,0 1,0.446 1,1 v 9 H 12 Z"/>
 <path style="fill:#c72566" d="M 12,22 H 3 C 2.446,22 2,21.554 2,21 v -9 h 10 z"/>
 <path style="fill:#ff8c2a" d="m 12,22 h 9 c 0.554,0 1,-0.446 1,-1 V 12 H 12 Z"/>
 <path style="opacity:0.2;fill:#ffffff" d="M 3,2 C 2.446,2 2,2.446 2,3 v 0.5 c 0,-0.554 0.446,-1 1,-1 h 18 c 0.554,0 1,0.446 1,1 V 3 C 22,2.446 21.554,2 21,2 Z"/>
 <path style="opacity:0.2" d="m 3,22.5 c -0.554,0 -1,-0.446 -1,-1 V 21 c 0,0.554 0.446,1 1,1 h 18 c 0.554,0 1,-0.446 1,-1 v 0.5 c 0,0.554 -0.446,1 -1,1 z"/>
 <rect style="fill:#3f3f3f" width="14" height="14" x="5" y="5"/>
 <path style="opacity:0.2;fill:none;stroke:#000000;stroke-linecap:round" d="M 7.5071212,15.99995 H 11.507121"/>
 <path style="fill:none;stroke:#ffffff;stroke-linecap:round" d="M 7.5071212,15.5 H 11.507121"/>
 <path style="opacity:0.2;fill:none;stroke:#000000;stroke-width:0.99999994;stroke-linecap:round" d="m 9.5071222,11.99995 -1.000001,-1.5 M 7.5071207,9.999949 c 0,0 2.0000015,0.23225 2.0000015,-0.999999 0,-1.2322505 -2.0000015,-1.0000005 -2.0000015,-1.0000005 m 4.9e-5,4.0000495 V 7.9999985"/>
 <path style="fill:none;stroke:#ffffff;stroke-width:0.99999994;stroke-linecap:round" d="M 9.5071222,11.5 8.5071212,10 M 7.5071207,9.4999985 c 0,0 2.0000015,0.2322505 2.0000015,-0.9999985 0,-1.2322505 -2.0000015,-1.0000005 -2.0000015,-1.0000005 m 4.9e-5,4.0000495 V 7.5000485"/>
 <path style="opacity:0.2;fill:none;stroke:#000000;stroke-linecap:round" d="m 11.507121,10.99995 h 2 m -1,1 v -2"/>
 <path style="fill:none;stroke:#ffffff;stroke-linecap:round" d="m 11.507121,10.5 h 2 m -1,1 v -2"/>
 <path style="opacity:0.2;fill:none;stroke:#000000;stroke-linecap:round" d="m 13.507121,7.9998788 h 2 m -1,1 v -2"/>
 <path style="fill:none;stroke:#ffffff;stroke-linecap:round" d="m 13.507121,7.4999288 h 2 m -1,1 v -2"/>
</svg>
